docs/img/stages-work8.svg

<svg width="120" height="119" viewBox="0 0 120 119" fill="none" xmlns="http://www.w3.org/2000/svg">
<path d="M59.8841 0C92.6105 3.27054e-06 119.284 26.5842 119.284 59.201C119.284 91.8178 92.6105 118.402 59.8841 118.402C27.1578 118.402 0.484373 91.8178 0.484375 59.201C0.484377 26.5842 27.1578 -3.27054e-06 59.8841 0ZM59.8841 116.664C91.6871 116.664 117.437 90.8976 117.437 59.3032C117.437 27.6067 91.5846 1.94268 59.8841 1.94268C28.0811 1.94268 2.33099 27.7089 2.33099 59.3032C2.22839 90.8975 28.0811 116.664 59.8841 116.664Z" fill="#E1C78C"/>
<path d="M74.752 44.5985L97.864 21.5063L97.5742 21.2167L74.4622 44.3089L74.752 44.5985Z" fill="#E1C78C"/>
<path d="M22.0256 97.1547L45.1376 74.0627L44.8478 73.7731L21.7358 96.8652L22.0256 97.1547Z" fill="#E1C78C"/>
<path d="M51.2002 50.0997C51.2002 51.3663 51.4335 52.533 51.9002 53.5997C52.4002 54.6663 53.0668 55.5997 53.9002 56.3997C54.7335 57.1663 55.6835 57.7663 56.7502 58.1997C57.8168 58.5997 58.9335 58.7997 60.1002 58.7997C61.2668 58.7997 62.3835 58.5997 63.4502 58.1997C64.5502 57.7663 65.5335 57.1663 66.4002 56.3997C67.2668 55.5997 67.9335 54.6663 68.4002 53.5997C68.8668 52.533 69.1002 51.3663 69.1002 50.0997C69.1002 48.933 68.8835 47.833 68.4501 46.7997C68.0168 45.7663 67.3835 44.8663 66.5502 44.0997C65.7502 43.2997 64.8002 42.6663 63.7002 42.1997C62.6335 41.733 61.4335 41.4997 60.1002 41.4997C58.4002 41.4997 56.8835 41.8997 55.5502 42.6997C54.2168 43.4997 53.1502 44.5497 52.3502 45.8497C51.5835 47.1497 51.2002 48.5663 51.2002 50.0997ZM52.7502 50.2497C52.7502 48.9163 53.0668 47.6997 53.7002 46.5997C54.3668 45.4997 55.2335 44.633 56.3002 43.9997C57.4002 43.333 58.6668 42.9997 60.1002 42.9997C61.5335 42.9997 62.8002 43.333 63.9002 43.9997C65.0335 44.633 65.9168 45.4997 66.5502 46.5997C67.1835 47.6997 67.5002 48.9163 67.5002 50.2497C67.5002 51.683 67.1168 52.9663 66.3502 54.0997C65.5835 55.233 64.6335 56.1163 63.5002 56.7497C62.3668 57.383 61.2335 57.6997 60.1002 57.6997C59.0002 57.6997 57.8835 57.383 56.7502 56.7497C55.6168 56.1163 54.6668 55.233 53.9002 54.0997C53.1335 52.9663 52.7502 51.683 52.7502 50.2497ZM50.1002 67.6997C50.1002 69.0663 50.3168 70.3497 50.7502 71.5497C51.2168 72.7163 51.8835 73.7497 52.7502 74.6497C53.6502 75.5497 54.7002 76.2497 55.9002 76.7497C57.1335 77.2497 58.5335 77.4997 60.1002 77.4997C61.6668 77.4997 63.0668 77.2497 64.3002 76.7497C65.5668 76.2497 66.6335 75.5497 67.5002 74.6497C68.3668 73.7497 69.0168 72.7163 69.4502 71.5497C69.9168 70.3497 70.1502 69.0663 70.1502 67.6997C70.1502 66.233 69.8835 64.9163 69.3502 63.7497C68.8168 62.5497 68.0668 61.533 67.1002 60.6997C66.1335 59.8663 65.0502 59.2163 63.8502 58.7497C62.6502 58.283 61.4002 58.0497 60.1002 58.0497C58.8002 58.0497 57.5502 58.283 56.3502 58.7497C55.1502 59.2163 54.0835 59.8663 53.1502 60.6997C52.2168 61.533 51.4668 62.5497 50.9002 63.7497C50.3668 64.9163 50.1002 66.233 50.1002 67.6997ZM51.7002 67.4997C51.7002 65.8663 52.1002 64.433 52.9002 63.1997C53.7335 61.9663 54.7835 60.9997 56.0502 60.2997C57.3502 59.5663 58.7002 59.1997 60.1002 59.1997C61.5002 59.1997 62.8502 59.5663 64.1502 60.2997C65.4502 60.9997 66.5168 61.9663 67.3502 63.1997C68.1835 64.433 68.6002 65.8663 68.6002 67.4997C68.6002 69.1663 68.2335 70.6497 67.5002 71.9497C66.8002 73.2164 65.8168 74.2163 64.5502 74.9497C63.2835 75.6497 61.8002 75.9997 60.1002 75.9997C58.4335 75.9997 56.9668 75.6497 55.7002 74.9497C54.4335 74.2163 53.4502 73.2164 52.7502 71.9497C52.0502 70.6497 51.7002 69.1663 51.7002 67.4997Z" fill="#E1C78C"/>
</svg>

<svg width="120" height="119" viewBox="0 0 120 119" fill="none" xmlns="http://www.w3.org/2000/svg"><path d="M59.884 0c32.727 0 59.4 26.584 59.4 59.201 0 32.617-26.674 59.201-59.4 59.201S.484 91.818.484 59.201C.484 26.584 27.158 0 59.884 0zm0 116.664c31.803 0 57.553-25.766 57.553-57.36 0-31.697-25.852-57.361-57.553-57.361-31.803 0-57.553 25.766-57.553 57.36-.103 31.594 25.75 57.361 57.553 57.361z" fill="#E1C78C"/><path d="M74.752 44.599l23.112-23.093-.29-.29L74.462 44.31l.29.29zM22.026 97.155l23.112-23.092-.29-.29-23.112 23.092.29.29zM51.2 50.1c0 1.266.233 2.433.7 3.5.5 1.066 1.167 2 2 2.8a9.397 9.397 0 002.85 1.8c1.067.4 2.184.6 3.35.6 1.167 0 2.283-.2 3.35-.6a9.882 9.882 0 002.95-1.8 8.306 8.306 0 002-2.8c.467-1.067.7-2.234.7-3.5a8.445 8.445 0 00-.65-3.3 7.649 7.649 0 00-1.9-2.7c-.8-.8-1.75-1.434-2.85-1.9-1.067-.467-2.267-.7-3.6-.7-1.7 0-3.217.4-4.55 1.2a9.34 9.34 0 00-3.2 3.15 8.217 8.217 0 00-1.15 4.25zm1.55.15c0-1.334.317-2.55.95-3.65a7.467 7.467 0 012.6-2.6c1.1-.667 2.367-1 3.8-1 1.433 0 2.7.333 3.8 1a6.852 6.852 0 012.65 2.6c.633 1.1.95 2.316.95 3.65 0 1.433-.383 2.716-1.15 3.85-.766 1.133-1.716 2.016-2.85 2.65-1.133.633-2.267.95-3.4.95-1.1 0-2.217-.317-3.35-.95-1.133-.634-2.083-1.517-2.85-2.65-.767-1.134-1.15-2.417-1.15-3.85zM50.1 67.7c0 1.366.217 2.65.65 3.85a9.527 9.527 0 002 3.1c.9.9 1.95 1.6 3.15 2.1 1.233.5 2.633.75 4.2.75 1.567 0 2.967-.25 4.2-.75 1.267-.5 2.334-1.2 3.2-2.1a8.885 8.885 0 001.95-3.1c.467-1.2.7-2.484.7-3.85 0-1.467-.267-2.784-.8-3.95a8.561 8.561 0 00-2.25-3.05 11.1 11.1 0 00-3.25-1.95c-1.2-.467-2.45-.7-3.75-.7-1.3 0-2.55.233-3.75.7a10.44 10.44 0 00-3.2 1.95c-.933.833-1.683 1.85-2.25 3.05-.533 1.166-.8 2.483-.8 3.95zm1.6-.2c0-1.634.4-3.067 1.2-4.3a9.036 9.036 0 013.15-2.9c1.3-.734 2.65-1.1 4.05-1.1s2.75.366 4.05 1.1c1.3.7 2.367 1.666 3.2 2.9.834 1.233 1.25 2.666 1.25 4.3 0 1.666-.366 3.15-1.1 4.45a7.731 7.731 0 01-2.95 3c-1.267.7-2.75 1.05-4.45 1.05-1.666 0-3.133-.35-4.4-1.05a7.73 7.73 0 01-2.95-3c-.7-1.3-1.05-2.784-1.05-4.45z" fill="#E1C78C"/></svg>
